src/components/icon/assets/logo_docker.svg

<?xml version="1.0" encoding="UTF-8"?>
<svg width="32px" height="32px" viewBox="0 0 32 32" version="1.1" xmlns="http://www.w3.org/2000/svg" xmlns:xlink="http://www.w3.org/1999/xlink">
    <!-- Generator: Sketch 48.2 (47327) - http://www.bohemiancoding.com/sketch -->
    <title>docker</title>
    <desc>Created with Sketch.</desc>
    <defs></defs>
    <g id="Page-1" stroke="none" stroke-width="1" fill="none" fill-rule="evenodd">
        <g id="docker" fill="#136EA3">
            <path d="M18.0990238,15.1080969 L21.4032097,15.1080969 L21.4032097,12.1350172 L18.0990238,12.1350172 L18.0990238,15.1080969 Z M14.1941532,15.1080969 L17.4981292,15.1080969 L17.4981292,12.1350172 L14.1941532,12.1350172 L14.1941532,15.1080969 Z M10.2892826,15.1080969 L13.5934685,15.1080969 L13.5934685,12.1350172 L10.2892826,12.1350172 L10.2892826,15.1080969 Z M6.38441202,15.1080969 L9.68859787,15.1080969 L9.68859787,12.1350172 L6.38441202,12.1350172 L6.38441202,15.1080969 Z M2.47954143,15.1080969 L5.78372728,15.1080969 L5.78372728,12.1350172 L2.47954143,12.1350172 L2.47954143,15.1080969 Z M6.38441202,11.5404844 L9.68859787,11.5404844 L9.68859787,8.56761248 L6.38441202,8.56761248 L6.38441202,11.5404844 Z M10.2892826,11.5404844 L13.5934685,11.5404844 L13.5934685,8.56761248 L10.2892826,8.56761248 L10.2892826,11.5404844 Z M14.1941532,11.5404844 L17.4981292,11.5404844 L17.4981292,8.56761248 L14.1941532,8.56761248 L14.1941532,11.5404844 Z M14.1941532,7.97307965 L17.4981292,7.97307965 L17.4981292,5 L14.1941532,5 L14.1941532,7.97307965 Z M31.3327677,13.3745621 C30.6111904,12.8967754 28.9531159,12.7216562 27.677238,12.9599263 C27.5128997,11.7702375 26.8431635,10.7390491 25.6247935,9.80674189 L24.9244144,9.34432746 L24.4570053,10.0383646 C23.8586292,10.9314102 23.559756,12.16867 23.6577713,13.3552429 C23.7018467,13.7725792 23.8403694,14.5191728 24.2741973,15.1756102 C23.8405793,15.4061942 22.9834177,15.7240262 21.8536183,15.7026297 L0.123396449,15.7026297 L0.0807902285,15.9504556 C-0.123425793,17.142845 -0.119018253,20.8637647 2.3219194,23.7238374 C4.17728387,25.8975591 6.95907129,27 10.589625,27 C18.4602322,27 24.2832222,23.414107 27.0102302,16.8956423 C28.0825218,16.9168311 30.3912332,16.9020821 31.5772812,14.6591851 C31.608134,14.6076672 31.6792843,14.473056 31.8864387,14.0482413 L31.9999853,13.8151645 L31.3327677,13.3745621 Z"></path>
        </g>
    </g>
</svg>

<svg width="32" height="32" xmlns="http://www.w3.org/2000/svg"><path d="M18.099 15.108h3.304v-2.973H18.1v2.973zm-3.905 0h3.304v-2.973h-3.304v2.973zm-3.905 0h3.304v-2.973H10.29v2.973zm-3.905 0H9.69v-2.973H6.384v2.973zm-3.904 0h3.304v-2.973H2.48v2.973zm3.904-3.568H9.69V8.568H6.384v2.972zm3.905 0h3.304V8.568H10.29v2.972zm3.905 0h3.304V8.568h-3.304v2.972zm0-3.567h3.304V5h-3.304v2.973zm17.139 5.402c-.722-.478-2.38-.653-3.656-.415-.164-1.19-.834-2.221-2.052-3.153l-.7-.463-.468.694c-.598.893-.897 2.13-.8 3.317.045.418.183 1.164.617 1.82-.433.231-1.29.549-2.42.528H.124l-.043.247c-.204 1.193-.2 4.914 2.24 7.774C4.178 25.898 6.96 27 10.59 27c7.87 0 13.693-3.586 16.42-10.104 1.073.02 3.381.006 4.567-2.237.031-.051.102-.186.31-.61l.113-.234-.667-.44z" fill="#136EA3" fill-rule="evenodd"/></svg>
